X:1
T:Trip to Ranelagh
M:12/8
L:1/8
B:Thompson's Compleat Collection of 200 Favourite Country Dances, vol. 1 (London, 1757)
Z:Transcribed and edited by Fynnian Titford-Mock, 2007
Z:abc's:AK/Fiddler's Companion
K:D
a2g fed ced cBA|dcB AGF GAG FED|fag fed ced cBA|fed cea cdB A3:|
|:e2d cBA GFE D3|f2e dcB A^GF E3|a2g fed gab a2g|fed Adc d3 D3:|
|:aAa gAg fdf e3|AFA GEG FDF E2 g/a/4b/4|agf edc d3 B3|Acd FGE D3 D3:|

